public/images/background-mobile.svg

<svg width="375" height="812" viewBox="0 0 375 812" fill="none" xmlns="http://www.w3.org/2000/svg">
<g clip-path="url(#clip0_51_93)">
<rect width="375" height="812" fill="white"/>
<g clip-path="url(#clip1_51_93)">
<rect width="375" height="812" fill="url(#paint0_linear_51_93)"/>
<rect y="701" width="375" height="354" fill="url(#paint1_linear_51_93)"/>
<path opacity="0.5" d="M420.626 744.558C163.289 745.777 -92.9125 763.218 -188.846 771.786C-262.891 820.791 -369.215 905.106 -202.145 850.323C-35.0753 795.54 292.622 756.375 435.588 751.735C445.285 747.603 455.869 753.336 420.626 744.558Z" fill="url(#paint2_linear_51_93)"/>
<g clip-path="url(#clip2_51_93)">
<rect width="375" height="731" fill="url(#paint3_linear_51_93)"/>
<circle cx="215.837" cy="496.157" r="1.5" transform="rotate(-15 215.837 496.157)" fill="#5DA9EF"/>
<circle cx="194.76" cy="230.9" r="1.5" transform="rotate(-62.974 194.76 230.9)" fill="#5DA9EF"/>
<circle cx="117.292" cy="231.79" r="1.5" transform="rotate(-62.974 117.292 231.79)" fill="#5DA9EF"/>
<circle cx="103.5" cy="191.5" r="1.5" fill="#5DA9EF"/>
<circle cx="366.171" cy="65.7162" r="4.5" transform="rotate(-15 366.171 65.7162)" fill="#5DA9EF"/>
<circle cx="276.391" cy="606.236" r="4.5" transform="rotate(-15 276.391 606.236)" fill="#5DA9EF"/>
<circle cx="50.5" cy="625.5" r="4.5" fill="#5DA9EF"/>
<path opacity="0.5" d="M-120.952 -76.321C640.004 -38.8351 1395.67 41.5005 1678.38 76.9826C1891.53 216.739 2192.59 528.671 1705 361.217C1217.41 193.762 254.291 14.9593 -167.99 -16.3696C-196.178 -28.6126 -226.233 -57.7432 -120.952 -76.321Z" fill="url(#paint4_linear_51_93)"/>
<path opacity="0.5" d="M-166.108 482.846C223.394 483.503 611.177 492.899 756.381 497.515C868.455 523.915 1029.39 584.435 776.51 554.922C523.636 525.408 27.6367 497.934 -188.754 495.435C-203.431 493.209 -219.451 487.575 -166.108 482.846Z" fill="url(#paint5_linear_51_93)"/>
<path opacity="0.5" d="M758.555 411.685C331.095 390.988 -94.6474 382.181 -254.086 380.364C-377.593 409.781 -555.379 482.536 -277.295 456.72C0.788703 430.904 545.642 421.312 783.161 429.929C799.312 427.739 817.002 421.023 758.555 411.685Z" fill="url(#paint6_linear_51_93)"/>
<path d="M-62.0393 499L-187 590.105V731H567L538.407 696.041L481.751 671.146L388.56 675.384L307.548 590.105L235.537 607.584L178.351 633.539L48.625 537.667L17.9143 546.142L-62.0393 499Z" fill="#151278"/>
<path d="M-127.95 700.253L-191 731H434V499L317.407 549.313L296.89 544.122L222.331 611.606L144.268 596.432L58.6998 649.94L32.6789 646.346L-53.3899 705.045L-127.95 700.253Z" fill="#151278"/>
</g>
</g>
</g>
<defs>
<linearGradient id="paint0_linear_51_93" x1="187.5" y1="0" x2="187.5" y2="812" gradientUnits="userSpaceOnUse">
<stop stop-color="#190131"/>
<stop offset="1" stop-color="#282B96"/>
</linearGradient>
<linearGradient id="paint1_linear_51_93" x1="187.5" y1="701" x2="187.5" y2="1055" gradientUnits="userSpaceOnUse">
<stop stop-color="#3522A0"/>
<stop offset="0.31" stop-color="#2C187F"/>
<stop offset="1" stop-color="#190334"/>
</linearGradient>
<linearGradient id="paint2_linear_51_93" x1="77" y1="744.558" x2="77" y2="868.17" gradientUnits="userSpaceOnUse">
<stop stop-color="#3931C1"/>
<stop offset="1" stop-color="#3931C1" stop-opacity="0"/>
</linearGradient>
<linearGradient id="paint3_linear_51_93" x1="187.5" y1="0" x2="187.5" y2="731" gradientUnits="userSpaceOnUse">
<stop stop-color="#1A0337"/>
<stop offset="0.335129" stop-color="#131381"/>
<stop offset="1" stop-color="#35B6FF"/>
</linearGradient>
<linearGradient id="paint4_linear_51_93" x1="-12.9128" y1="-89.4766" x2="1516.18" y2="343.21" gradientUnits="userSpaceOnUse">
<stop stop-color="#4531C1"/>
<stop offset="1" stop-color="#7931C1" stop-opacity="0"/>
</linearGradient>
<linearGradient id="paint5_linear_51_93" x1="-111.232" y1="479.191" x2="506.926" y2="844.938" gradientUnits="userSpaceOnUse">
<stop stop-color="#7966FF"/>
<stop offset="0.0001" stop-color="#66C8FF"/>
<stop offset="1" stop-color="#3A88E1"/>
</linearGradient>
<linearGradient id="paint6_linear_51_93" x1="698.404" y1="403.713" x2="-42.5591" y2="741.322" gradientUnits="userSpaceOnUse">
<stop stop-color="#2772CB"/>
<stop offset="1" stop-color="#45A0E8"/>
</linearGradient>
<clipPath id="clip0_51_93">
<rect width="375" height="812" fill="white"/>
</clipPath>
<clipPath id="clip1_51_93">
<rect width="375" height="812" fill="white"/>
</clipPath>
<clipPath id="clip2_51_93">
<rect width="375" height="731" fill="white"/>
</clipPath>
</defs>
</svg>

<svg xmlns="http://www.w3.org/2000/svg" width="375" height="812" fill="none" viewBox="0 0 375 812"><g clip-path="url(#a)"><path fill="url(#b)" d="M0 0h375v812H0z"/><path fill="url(#c)" d="M0 701h375v354H0z"/><path fill="url(#d)" d="M420.626 744.558c-257.337 1.219-513.538 18.66-609.472 27.228-74.045 49.005-180.369 133.32-13.299 78.537 167.07-54.783 494.767-93.948 637.733-98.588 9.697-4.132 20.281 1.601-14.962-7.177Z" opacity=".5"/><g clip-path="url(#e)"><path fill="url(#f)" d="M0 0h375v731H0z"/><circle cx="215.837" cy="496.158" r="1.5" fill="#5DA9EF" transform="rotate(-15 215.837 496.158)"/><circle cx="194.76" cy="230.9" r="1.5" fill="#5DA9EF" transform="rotate(-62.974 194.76 230.9)"/><circle cx="117.292" cy="231.79" r="1.5" fill="#5DA9EF" transform="rotate(-62.974 117.292 231.79)"/><circle cx="103.5" cy="191.5" r="1.5" fill="#5DA9EF"/><circle cx="366.171" cy="65.716" r="4.5" fill="#5DA9EF" transform="rotate(-15 366.171 65.716)"/><circle cx="276.391" cy="606.236" r="4.5" fill="#5DA9EF" transform="rotate(-15 276.391 606.236)"/><circle cx="50.5" cy="625.5" r="4.5" fill="#5DA9EF"/><path fill="url(#g)" d="M-120.952-76.32C640.004-38.835 1395.67 41.5 1678.38 76.983c213.15 139.757 514.21 451.689 26.62 284.234C1217.41 193.763 254.291 14.96-167.99-16.369c-28.188-12.243-58.243-41.374 47.038-59.951Z" opacity=".5"/><path fill="url(#h)" d="M-166.108 482.845c389.502.657 777.285 10.053 922.489 14.669 112.074 26.401 273.009 86.92 20.129 57.407-252.874-29.513-748.873-56.987-965.264-59.487-14.677-2.225-30.697-7.859 22.646-12.589Z" opacity=".5"/><path fill="url(#i)" d="M758.555 411.685c-427.46-20.697-853.202-29.504-1012.641-31.321-123.507 29.417-301.293 102.172-23.209 76.356C.789 430.904 545.642 421.312 783.161 429.929c16.151-2.19 33.841-8.906-24.606-18.244Z" opacity=".5"/><path fill="#151278" d="M-62.04 499-187 590.105V731h754l-28.593-34.959-56.656-24.895-93.191 4.238-81.012-85.279-72.011 17.479-57.186 25.955-129.726-95.872-30.71 8.475L-62.04 499Z"/><path fill="#151278" d="M-127.95 700.253-191 731h625V499l-116.593 50.313-20.517-5.191-74.559 67.484-78.063-15.174L58.7 649.94l-26.021-3.594-86.069 58.699-74.56-4.792Z"/></g></g><defs><linearGradient id="b" x1="187.5" x2="187.5" y1="0" y2="812" gradientUnits="userSpaceOnUse"><stop stop-color="#190131"/><stop offset="1" stop-color="#282B96"/></linearGradient><linearGradient id="c" x1="187.5" x2="187.5" y1="701" y2="1055" gradientUnits="userSpaceOnUse"><stop stop-color="#3522A0"/><stop offset=".31" stop-color="#2C187F"/><stop offset="1" stop-color="#190334"/></linearGradient><linearGradient id="d" x1="77" x2="77" y1="744.558" y2="868.17" gradientUnits="userSpaceOnUse"><stop stop-color="#3931C1"/><stop offset="1" stop-color="#3931C1" stop-opacity="0"/></linearGradient><linearGradient id="f" x1="187.5" x2="187.5" y1="0" y2="731" gradientUnits="userSpaceOnUse"><stop stop-color="#1A0337"/><stop offset=".335" stop-color="#131381"/><stop offset="1" stop-color="#35B6FF"/></linearGradient><linearGradient id="g" x1="-12.913" x2="1516.18" y1="-89.476" y2="343.21" gradientUnits="userSpaceOnUse"><stop stop-color="#4531C1"/><stop offset="1" stop-color="#7931C1" stop-opacity="0"/></linearGradient><linearGradient id="h" x1="-111.232" x2="506.926" y1="479.191" y2="844.938" gradientUnits="userSpaceOnUse"><stop stop-color="#7966FF"/><stop offset="0" stop-color="#66C8FF"/><stop offset="1" stop-color="#3A88E1"/></linearGradient><linearGradient id="i" x1="698.404" x2="-42.559" y1="403.713" y2="741.322" gradientUnits="userSpaceOnUse"><stop stop-color="#2772CB"/><stop offset="1" stop-color="#45A0E8"/></linearGradient><clipPath id="a"><path fill="#fff" d="M0 0h375v812H0z"/></clipPath><clipPath id="e"><path fill="#fff" d="M0 0h375v731H0z"/></clipPath></defs></svg>
